components/ui-node-icon/src/splitColumns/splitColumns.large.svg

<svg width="32" height="32" viewBox="0 0 32 32" fill="none" xmlns="http://www.w3.org/2000/svg">
  <path fill-rule="evenodd" clip-rule="evenodd" d="M17 4C17 3.44772 16.5523 3 16 3C15.4477 3 15 3.44772 15 4V28C15 28.5523 15.4477 29 16 29C16.5523 29 17 28.5523 17 28V4ZM10.8827 13.0761C10.509 12.9214 10.0789 13.0069 9.79289 13.2929L7.79289 15.2929C7.40237 15.6834 7.40237 16.3166 7.79289 16.7071L9.79289 18.7071C10.0789 18.9931 10.509 19.0787 10.8827 18.9239C11.2564 18.7691 11.5 18.4045 11.5 18V14C11.5 13.5956 11.2564 13.2309 10.8827 13.0761ZM20.6173 13.0761C20.991 12.9214 21.4211 13.0069 21.7071 13.2929L23.7071 15.2929C24.0976 15.6834 24.0976 16.3166 23.7071 16.7071L21.7071 18.7071C21.4211 18.9931 20.991 19.0787 20.6173 18.9239C20.2436 18.7691 20 18.4045 20 18V14C20 13.5956 20.2436 13.2309 20.6173 13.0761Z" fill="var(--tbl--colors--icons--clean--primary)"/>
</svg>

<svg xmlns="http://www.w3.org/2000/svg" width="32" height="32" fill="none" viewBox="0 0 32 32">
  <path fill="var(--tbl--colors--icons--clean--primary)" fill-rule="evenodd" d="M17 4a1 1 0 1 0-2 0v24a1 1 0 1 0 2 0V4Zm-6.117 9.076a1 1 0 0 0-1.09.217l-2 2a1 1 0 0 0 0 1.414l2 2A1 1 0 0 0 11.5 18v-4a1 1 0 0 0-.617-.924Zm9.734 0a1 1 0 0 1 1.09.217l2 2a1 1 0 0 1 0 1.414l-2 2A1 1 0 0 1 20 18v-4a1 1 0 0 1 .617-.924Z" clip-rule="evenodd"/>
</svg>
